packages/elvis-assets-icons/icons/svg/src/mail.svg

<svg width="24" height="24" viewBox="0 0 24 24" fill="none" xmlns="http://www.w3.org/2000/svg">
<path d="M2.4 20.7483C1.07627 20.7483 0 19.6781 0 18.3619V5.63465C0 5.10011 0.174933 4.5942 0.507733 4.17102C0.5152 4.15935 0.523733 4.14769 0.5312 4.13814C0.5376 4.12965 0.5472 4.11905 0.555733 4.1095C1.00907 3.56435 1.68213 3.24829 2.4 3.24829H21.6C22.3157 3.24829 22.9877 3.56329 23.4464 4.11162C23.4571 4.12223 23.4667 4.1339 23.4741 4.1445C23.4805 4.15193 23.4869 4.16253 23.4933 4.17208C23.8251 4.59526 24 5.10011 24 5.63465V18.3619C24 19.6781 22.9237 20.7483 21.6 20.7483H2.4ZM1.6 18.3619C1.6 18.801 1.9584 19.1574 2.4 19.1574H21.6C22.0416 19.1574 22.4 18.801 22.4 18.3619V5.96556L14.6389 11.9007C13.888 12.4756 12.9504 12.7927 12 12.7927C11.0496 12.7927 10.112 12.4756 9.36107 11.9007L1.6 5.96556V18.3619ZM10.336 10.6397C10.8096 11.0024 11.4005 11.2018 12 11.2018C12.5995 11.2018 13.1893 11.0024 13.6629 10.6397L21.248 4.83814H2.75093L10.336 10.6397Z" fill="black"/>
</svg>

<svg width="24" height="24" fill="none" xmlns="http://www.w3.org/2000/svg"><path d="M2.4 20.748c-1.324 0-2.4-1.07-2.4-2.386V5.635a2.346 2.346 0 01.531-1.497l.025-.029A2.393 2.393 0 012.4 3.25h19.2a2.4 2.4 0 011.874.895l.02.028c.331.423.506.928.506 1.463v12.727a2.396 2.396 0 01-2.4 2.386H2.4zm-.8-2.386c0 .439.358.795.8.795h19.2c.442 0 .8-.356.8-.795V5.966L14.639 11.9a4.365 4.365 0 01-2.639.892c-.95 0-1.888-.317-2.639-.892L1.6 5.966v12.396zm8.736-7.722a2.747 2.747 0 003.327 0l7.585-5.802H2.751l7.585 5.802z" fill="#000"/></svg>
